X:17
%%NRChange 2018-03-02
T:Femskaft fra M\/on
O:Denmark
M:4/4
L:1/8
Q:1/4=120
R:Femskaft
Z:mheiman@northernroots.org
K:Gmaj
P:A
|:"G"B4 cBAG | B2d2d4 | "D"A4 BAGB | A2D2D4 |
"Em"B4 cBAG | B2d2d4 | "C"A4 BAGB |  A2G2G4 :| 
P:B
|: "Em"g3g2 fed | "Bm"e2d2d4 | "C"e3e2 dcB | "Bm"c2B2B4 |
 "Em"g3g2 fed | "Bm"e2d2d4 | "D"dedc BcBA |1 "C"G6Bd:|2 "C"G6D2|]

